austria/municipalities/41809.svg

<?xml version="1.0" encoding="UTF-8"?>
<!DOCTYPE svg PUBLIC "-//W3C//DTD SVG 1.1//EN" "http://www.w3.org/Graphics/SVG/1.1/DTD/svg11.dtd">
<svg xmlns="http://www.w3.org/2000/svg" version="1.1" width="166px" height="207px" style="shape-rendering:geometricPrecision; text-rendering:geometricPrecision; image-rendering:optimizeQuality; fill-rule:evenodd; clip-rule:evenodd" xmlns:xlink="http://www.w3.org/1999/xlink">
<g><path style="opacity:1" fill="#000000" d="M -0.5,-0.5 C 54.8333,-0.5 110.167,-0.5 165.5,-0.5C 165.5,44.1667 165.5,88.8333 165.5,133.5C 157.53,172.472 134.197,196.805 95.5,206.5C 86.8333,206.5 78.1667,206.5 69.5,206.5C 29.6208,196.954 6.2875,171.954 -0.5,131.5C -0.5,87.5 -0.5,43.5 -0.5,-0.5 Z"/></g>
<g><path style="opacity:1" fill="#e10a15" d="M 3.5,3.5 C 27.169,3.33337 50.8357,3.50003 74.5,4C 51.2832,25.5178 27.7832,46.6844 4,67.5C 3.50004,46.1693 3.33337,24.8359 3.5,3.5 Z"/></g>
<g><path style="opacity:1" fill="#fefffe" d="M 77.5,3.5 C 92.5037,3.33342 107.504,3.50008 122.5,4C 83.0514,39.4429 43.5514,74.9429 4,110.5C 3.16726,96.8212 3.33393,83.1545 4.5,69.5C 29.1779,47.8192 53.5112,25.8192 77.5,3.5 Z"/></g>
<g><path style="opacity:1" fill="#e10a15" d="M 124.5,3.5 C 136.833,3.5 149.167,3.5 161.5,3.5C 161.667,20.8365 161.5,38.1699 161,55.5C 115.615,96.5569 70.2818,137.557 25,178.5C 8.61891,160.012 1.61891,138.345 4,113.5C 44.6361,77.3647 84.8027,40.698 124.5,3.5 Z"/></g>
<g><path style="opacity:1" fill="#030200" d="M 139.5,20.5 C 144.81,20.9866 147.143,23.9866 146.5,29.5C 146.333,30.8333 146.167,32.1667 146,33.5C 143.778,35.3848 141.944,37.5515 140.5,40C 140.833,40.5 141.167,41 141.5,41.5C 144.276,40.9109 146.61,39.5776 148.5,37.5C 149.635,41.65 149.135,45.65 147,49.5C 143.459,52.2938 139.626,54.6272 135.5,56.5C 137.724,57.7801 139.724,57.4468 141.5,55.5C 143.283,56.3482 143.783,57.6815 143,59.5C 137.931,64.9476 131.764,66.7809 124.5,65C 122.57,62.7417 121.07,60.2417 120,57.5C 116.833,60.6667 113.667,63.8333 110.5,67C 106.618,67.7666 104.452,66.2666 104,62.5C 107.925,59.4527 111.759,56.286 115.5,53C 107.519,51.3691 104.019,46.5358 105,38.5C 108.679,27.9668 111.345,27.9668 113,38.5C 113.868,34.1463 115.368,29.9797 117.5,26C 120.43,24.6821 123.43,24.0154 126.5,24C 127.022,24.5613 127.355,25.228 127.5,26C 126.549,28.1583 126.049,30.325 126,32.5C 128.274,29.4669 130.441,26.3003 132.5,23C 134.927,22.0977 137.26,21.2644 139.5,20.5 Z"/></g>
<g><path style="opacity:1" fill="#fea600" d="M 141.5,22.5 C 144.303,25.2036 145.137,28.5369 144,32.5C 141.37,34.4562 139.537,36.9562 138.5,40C 138.709,41.8715 139.709,43.0381 141.5,43.5C 147.256,40.0894 148.756,41.4227 146,47.5C 144.833,48.6667 143.667,49.8333 142.5,51C 139.461,51.3534 136.795,52.5201 134.5,54.5C 133.167,55.8333 133.167,57.1667 134.5,58.5C 140.866,59.3663 140.866,60.8663 134.5,63C 127.453,65.4327 123.119,63.0993 121.5,56C 127,48.5 132.5,41 138,33.5C 138.667,32.5 138.667,31.5 138,30.5C 131.473,37.027 124.973,43.527 118.5,50C 109.138,51.1708 105.305,47.0041 107,37.5C 109.9,32.2172 111.234,32.8839 111,39.5C 112.751,40.8088 114.251,40.4755 115.5,38.5C 116.172,35.1033 117.005,31.7699 118,28.5C 119.789,26.771 121.956,26.1043 124.5,26.5C 124.643,28.2624 124.309,29.9291 123.5,31.5C 124.9,35.1542 126.9,35.4876 129.5,32.5C 130.646,29.7206 131.979,27.0539 133.5,24.5C 136.311,23.9204 138.977,23.2537 141.5,22.5 Z"/></g>
<g><path style="opacity:1" fill="#fea700" d="M 123.5,47.5 C 124.525,47.8966 124.692,48.5632 124,49.5C 119.872,55.2956 115.039,60.4623 109.5,65C 107.333,65.5 106.5,64.6667 107,62.5C 113.294,58.3727 118.794,53.3727 123.5,47.5 Z"/></g>
<g><path style="opacity:1" fill="#000000" d="M 80.5,58.5 C 81.4959,58.4142 82.3292,58.7476 83,59.5C 84.6423,64.0972 86.4756,68.5972 88.5,73C 93.7433,72.1911 99.0766,71.6911 104.5,71.5C 104.509,73.3084 104.009,74.9751 103,76.5C 100.5,79.5 98,82.5 95.5,85.5C 98,88.5 100.5,91.5 103,94.5C 104.009,96.0249 104.509,97.6916 104.5,99.5C 98.8387,99.0932 93.172,98.7599 87.5,98.5C 86.7075,103.043 85.2075,107.376 83,111.5C 81.9887,112.337 80.8221,112.67 79.5,112.5C 77.9616,107.886 76.6283,103.219 75.5,98.5C 69.4871,98.8693 63.4871,99.036 57.5,99C 60.4568,94.2675 63.7901,89.7675 67.5,85.5C 63.9245,81.347 60.5912,77.0137 57.5,72.5C 58.8333,72.1667 60.1667,71.8333 61.5,71.5C 65.8681,72.2311 70.2014,72.7311 74.5,73C 76.6007,68.1951 78.6007,63.3618 80.5,58.5 Z"/></g>
<g><path style="opacity:1" fill="#fefffe" d="M 160.5,58.5 C 161.661,71.9938 161.827,85.6604 161,99.5C 124.317,131.854 87.9836,164.52 52,197.5C 42.7521,192.79 34.2521,186.956 26.5,180C 71.063,139.265 115.73,98.7647 160.5,58.5 Z"/></g>
<g><path style="opacity:1" fill="#fea700" d="M 80.5,61.5 C 83.1865,65.703 85.5199,70.203 87.5,75C 91.1132,74.7337 94.7799,74.2337 98.5,73.5C 99.5,73.8333 100.5,74.1667 101.5,74.5C 98.5887,77.9895 95.922,81.6562 93.5,85.5C 95.9275,89.7633 98.9275,93.5966 102.5,97C 97.4388,96.9064 92.4388,96.5731 87.5,96C 85.4616,100.576 83.2949,105.076 81,109.5C 79.3577,104.903 77.5244,100.403 75.5,96C 70.5612,96.5731 65.5612,96.9064 60.5,97C 63.6908,93.31 66.6908,89.4767 69.5,85.5C 66.6908,81.5233 63.6908,77.69 60.5,74C 65.595,73.7995 70.595,74.1328 75.5,75C 77.6604,70.6859 79.327,66.1859 80.5,61.5 Z"/></g>
<g><path style="opacity:1" fill="#e10a15" d="M 159.5,102.5 C 166.451,134.159 158.117,161.326 134.5,184C 110.484,203.067 83.8171,207.734 54.5,198C 89.6697,166.329 124.67,134.496 159.5,102.5 Z"/></g>
<g><path style="opacity:1" fill="#010000" d="M 53.5,103.5 C 56.1523,104.152 57.8189,105.819 58.5,108.5C 55.0377,112.127 51.371,115.627 47.5,119C 57.6952,122.245 60.5285,128.745 56,138.5C 54.8867,140.329 53.3867,141.163 51.5,141C 50.7256,138.595 50.2256,136.095 50,133.5C 49.1339,137.891 47.6339,142.057 45.5,146C 42.6487,147.608 39.6487,148.274 36.5,148C 36.3362,145.301 36.1695,142.468 36,139.5C 34.4547,143.432 32.2881,146.932 29.5,150C 25.5138,150.499 21.5138,150.666 17.5,150.5C 17.4519,147.687 16.7853,145.021 15.5,142.5C 16.3141,138.52 18.4808,135.52 22,133.5C 22.4828,132.552 22.6495,131.552 22.5,130.5C 19.309,130.762 16.6423,132.095 14.5,134.5C 12.3562,124.445 16.3562,118.779 26.5,117.5C 26.5,116.5 26.5,115.5 26.5,114.5C 16.5816,115.619 16.2483,113.452 25.5,108C 33.9646,103.104 39.7979,105.271 43,114.5C 46.6762,110.991 50.1762,107.324 53.5,103.5 Z"/></g>
<g><path style="opacity:1" fill="#fea700" d="M 53.5,106.5 C 54.9953,106.415 55.9953,107.081 56.5,108.5C 50.2172,113.28 44.3839,118.613 39,124.5C 38.3333,123.833 38.3333,123.167 39,122.5C 41.575,119.681 43.9083,116.681 46,113.5C 48.9985,111.667 51.4985,109.334 53.5,106.5 Z"/></g>
<g><path style="opacity:1" fill="#fea700" d="M 31.5,107.5 C 38.6492,107.817 41.4825,111.484 40,118.5C 35.6667,124.167 31.3333,129.833 27,135.5C 25.1256,137.569 24.1256,139.902 24,142.5C 30.8333,135.667 37.6667,128.833 44.5,122C 53.4217,121.293 57.255,125.46 56,134.5C 55,135.833 54,137.167 53,138.5C 52.7638,136.236 52.2638,134.069 51.5,132C 49.6332,131.289 48.1332,131.789 47,133.5C 48.1049,140.31 45.4383,144.643 39,146.5C 38.5,146.167 38,145.833 37.5,145.5C 38.3742,143.253 38.7076,140.92 38.5,138.5C 36.712,138.215 35.0453,138.548 33.5,139.5C 31.975,147.527 27.3084,150.36 19.5,148C 18.7728,145.876 18.1062,143.709 17.5,141.5C 19.0421,138.633 21.2088,136.299 24,134.5C 24.6384,128.165 22.1384,126.832 16.5,130.5C 15.7693,127.486 16.436,124.653 18.5,122C 21.7623,120.571 24.9289,119.071 28,117.5C 28.7203,115.888 28.5536,114.388 27.5,113C 25.5758,112.821 23.9091,112.654 22.5,112.5C 25.433,110.538 28.433,108.871 31.5,107.5 Z"/></g>
<g><path style="opacity:1" fill="#fefffe" d="M -0.5,131.5 C 6.2875,171.954 29.6208,196.954 69.5,206.5C 46.1667,206.5 22.8333,206.5 -0.5,206.5C -0.5,181.5 -0.5,156.5 -0.5,131.5 Z"/></g>
<g><path style="opacity:1" fill="#fefffe" d="M 165.5,133.5 C 165.5,157.833 165.5,182.167 165.5,206.5C 142.167,206.5 118.833,206.5 95.5,206.5C 134.197,196.805 157.53,172.472 165.5,133.5 Z"/></g>
</svg>

<svg xmlns="http://www.w3.org/2000/svg" width="166" height="207" style="shape-rendering:geometricPrecision;text-rendering:geometricPrecision;image-rendering:optimizeQuality;fill-rule:evenodd;clip-rule:evenodd"><path style="opacity:1" d="M-.5-.5h166v134c-7.97 38.972-31.303 63.305-70 73h-26c-39.88-9.546-63.212-34.546-70-75V-.5z"/><path style="opacity:1" fill="#e10a15" d="M3.5 3.5c23.669-.167 47.336 0 71 .5A3331.38 3331.38 0 0 1 4 67.5c-.5-21.33-.667-42.664-.5-64z"/><path style="opacity:1" fill="#fefffe" d="M77.5 3.5c15.004-.167 30.004 0 45 .5A521620.807 521620.807 0 0 0 4 110.5a280.73 280.73 0 0 1 .5-41 3450.38 3450.38 0 0 0 73-66z"/><path style="opacity:1" fill="#e10a15" d="M124.5 3.5h37c.167 17.337 0 34.67-.5 52a734870.148 734870.148 0 0 1-136 123c-16.381-18.488-23.381-40.155-21-65a6258.87 6258.87 0 0 0 120.5-110z"/><path style="opacity:1" fill="#030200" d="M139.5 20.5c5.31.487 7.643 3.487 7 9l-.5 4a25.404 25.404 0 0 0-5.5 6.5l1 1.5c2.776-.59 5.11-1.922 7-4 1.135 4.15.635 8.15-1.5 12a55.588 55.588 0 0 1-11.5 7c2.224 1.28 4.224.947 6-1 1.783.848 2.283 2.181 1.5 4-5.069 5.448-11.236 7.28-18.5 5.5a26.043 26.043 0 0 1-4.5-7.5l-9.5 9.5c-3.882.767-6.048-.733-6.5-4.5a246.282 246.282 0 0 0 11.5-9.5c-7.981-1.63-11.481-6.464-10.5-14.5 3.679-10.533 6.345-10.533 8 0a44.953 44.953 0 0 1 4.5-12.5c2.93-1.318 5.93-1.985 9-2a3.944 3.944 0 0 1 1 2c-.951 2.158-1.451 4.325-1.5 6.5 2.274-3.033 4.441-6.2 6.5-9.5 2.427-.902 4.76-1.736 7-2.5z"/><path style="opacity:1" fill="#fea600" d="M141.5 22.5c2.803 2.704 3.637 6.037 2.5 10-2.63 1.956-4.463 4.456-5.5 7.5.209 1.871 1.209 3.038 3 3.5 5.756-3.41 7.256-2.077 4.5 4l-3.5 3.5c-3.039.353-5.705 1.52-8 3.5-1.333 1.333-1.333 2.667 0 4 6.366.866 6.366 2.366 0 4.5-7.047 2.433-11.381.1-13-7L138 33.5c.667-1 .667-2 0-3L118.5 50c-9.362 1.17-13.195-2.996-11.5-12.5 2.9-5.283 4.234-4.616 4 2 1.751 1.309 3.251.975 4.5-1 .672-3.397 1.505-6.73 2.5-10 1.789-1.729 3.956-2.396 6.5-2a9.107 9.107 0 0 1-1 5c1.4 3.654 3.4 3.988 6 1a61.207 61.207 0 0 1 4-8 94.939 94.939 0 0 0 8-2z"/><path style="opacity:1" fill="#fea700" d="M123.5 47.5c1.025.397 1.192 1.063.5 2A79.818 79.818 0 0 1 109.5 65c-2.167.5-3-.333-2.5-2.5a70.685 70.685 0 0 0 16.5-15z"/><path style="opacity:1" d="M80.5 58.5c.996-.086 1.83.248 2.5 1A165.885 165.885 0 0 0 88.5 73a136.34 136.34 0 0 1 16-1.5c.009 1.808-.491 3.475-1.5 5l-7.5 9 7.5 9c1.009 1.525 1.509 3.192 1.5 5a656.397 656.397 0 0 0-17-1 43.067 43.067 0 0 1-4.5 13c-1.011.837-2.178 1.17-3.5 1a167.074 167.074 0 0 1-4-14c-6.013.37-12.013.536-18 .5a106.842 106.842 0 0 1 10-13.5 148.62 148.62 0 0 1-10-13l4-1c4.368.731 8.701 1.231 13 1.5 2.1-4.805 4.1-9.638 6-14.5z"/><path style="opacity:1" fill="#fefffe" d="M160.5 58.5c1.161 13.494 1.327 27.16.5 41a7675.103 7675.103 0 0 0-109 98A118.67 118.67 0 0 1 26.5 180a22373.871 22373.871 0 0 1 134-121.5z"/><path style="opacity:1" fill="#fea700" d="M80.5 61.5c2.686 4.203 5.02 8.703 7 13.5a91.639 91.639 0 0 0 11-1.5l3 1a102.193 102.193 0 0 0-8 11 49.92 49.92 0 0 0 9 11.5 154.91 154.91 0 0 1-15-1 251.98 251.98 0 0 1-6.5 13.5A165.944 165.944 0 0 0 75.5 96a154.91 154.91 0 0 1-15 1c3.19-3.69 6.19-7.523 9-11.5-2.81-3.977-5.81-7.81-9-11.5 5.095-.2 10.095.133 15 1a65.676 65.676 0 0 0 5-13.5z"/><path style="opacity:1" fill="#e10a15" d="M159.5 102.5c6.951 31.659-1.383 58.826-25 81.5-24.016 19.067-50.683 23.734-80 14 35.17-31.671 70.17-63.504 105-95.5z"/><path style="opacity:1" fill="#010000" d="M53.5 103.5c2.652.652 4.319 2.319 5 5a165.521 165.521 0 0 1-11 10.5c10.195 3.245 13.029 9.745 8.5 19.5-1.113 1.829-2.613 2.663-4.5 2.5a33.995 33.995 0 0 1-1.5-7.5 44.007 44.007 0 0 1-4.5 12.5c-2.851 1.608-5.851 2.274-9 2-.164-2.699-.33-5.532-.5-8.5-1.545 3.932-3.712 7.432-6.5 10.5a72.368 72.368 0 0 1-12 .5 18.07 18.07 0 0 0-2-8c.814-3.98 2.98-6.98 6.5-9 .483-.948.65-1.948.5-3-3.191.262-5.858 1.595-8 4-2.144-10.055 1.856-15.721 12-17v-3c-9.918 1.119-10.252-1.048-1-6.5 8.465-4.896 14.298-2.729 17.5 6.5a163.259 163.259 0 0 0 10.5-11z"/><path style="opacity:1" fill="#fea700" d="M53.5 106.5c1.495-.085 2.495.581 3 2a131.92 131.92 0 0 0-17.5 16c-.667-.667-.667-1.333 0-2a71.888 71.888 0 0 0 7-9 25.11 25.11 0 0 0 7.5-7z"/><path style="opacity:1" fill="#fea700" d="M31.5 107.5c7.15.317 9.983 3.984 8.5 11l-13 17c-1.874 2.069-2.874 4.402-3 7L44.5 122c8.922-.707 12.755 3.46 11.5 12.5l-3 4a26.689 26.689 0 0 0-1.5-6.5c-1.867-.711-3.367-.211-4.5 1.5 1.105 6.81-1.562 11.143-8 13l-1.5-1a15.42 15.42 0 0 0 1-7c-1.788-.285-3.455.048-5 1-1.525 8.027-6.192 10.86-14 8.5a109.636 109.636 0 0 1-2-6.5c1.542-2.867 3.709-5.201 6.5-7 .638-6.335-1.862-7.668-7.5-4-.73-3.014-.064-5.847 2-8.5a175.274 175.274 0 0 0 9.5-4.5c.72-1.612.554-3.112-.5-4.5-1.924-.179-3.59-.346-5-.5a60.841 60.841 0 0 1 9-5z"/><path style="opacity:1" fill="#fefffe" d="M-.5 131.5c6.787 40.454 30.12 65.454 70 75h-70v-75zM165.5 133.5v73h-70c38.697-9.695 62.03-34.028 70-73z"/></svg>
